X:4849
T:Entemediu de Castan (XA 33)
R:Marcha
C:Tradicional
S:Msica Tradicional Asturiana, (C) Tello & Tito. Asturies, 2001.
S:http://pagina.de/MusTradAst <telloytito@asturies.org>
A:Asturies
Z:Mtodu de Xuacu Amieva 33
M:2/4
L:1/8
Q:1/4=90
K:C
CE
|: G2 A/B/A/G/|EC/D/ ~EC/D/|~ED/E/ .F.D|.F~D B,D|
|F2 G/F/~E/D/|CB,/C/ DC/D/|EF ~ED|C2 CE :|
|: G2 GG/A/|F2 ~E2|DD DF|A2 BA|G/A/G/F/ E/F/E/D/|C2 CE|
|G2 GG/A/|F2 ~E2|DD c/B/~A/G/|F/E/D/C/ B,~D|[1 C2 CE :|[2 C2 .E.E|
|.E.E F2|~ED .GG|~ED/C/ .E.E|.E.E F2|~ED c/B/~A/G/|F/E/D/C/ B,~D|C2 .EE/E/|
|E/E/E/E/ F2|~ED .GG|~E/D/C .EE/E/|
|E/E/E/E/ F2|~ED c/B/~A/G/|F/E/D/C/ B,~D|C2 z2|
